X:1
T:Beware of the wine-cup (SATB)
T:Beware of the wine-cup (SATB)
T:John Liptrot Hatton(1808-1886)
C:John Liptrot Hatton(1808-1886)
%%score [ 1 2 3 4 ]
L:1/8
M:4/4
K:D
V:1 treble nm="Soprano"
V:2 treble nm="Alto"
V:3 treble-8 nm="Tenor"
V:4 bass nm="Bass"
V:1
!p! A2 | A2 A- A!<(! (AB) (c d)!<)! | !>!e3 d c2 z2 | d4 B2 z2 | A4 F2 z A | %5
w: 1.I|know the _ wine- * cup's _|fair to see,|Take care!|Take care! It|
w: 2.It|glit- ters _ like _ a _|gold- en crown,|Take care!|Take care! To|
w: 3.There's|pain and _ woe _ in the|wine- cup's hue,|Take care!|Take care! And|
w: 4.It|shines like a jew- * el _|bright and fair,|Take care!|Take care! It|
 A2 A2!<(! (AB) (c d)!<)! | !>!c3 B ^A2 z A | ^A4 B2 z ^G | (^G4 A2) z2 |!p! A2 A2 B2 B B | %10
w: can both false _ and _|frien- ly be, Be-|ware! _ Be-|ware! _|Trust it not, it will|
w: dark- ness it _ will _|drag thee down, Be-|ware! _ Be-|ware! _|Trust it not, it will|
w: it will prove _ no _|friend to thee, Be-|ware! _ Be-|ware! _|Trust it not, it will|
w: is a fool's _ cap for|thee to wear, Be-|ware! _ Be-|ware! _|Trust it not, it is|
 c2 c2 d4 |"^cresc." d2 B2 A2 ^G G |!>(! A6 =G2!>)! | F6 |] %14
w: ru- in thee,|Trust it not, it will|ru- in|thee!|
w: ru- in thee,|Trust it not, it will|ru- in|thee!|
w: ru- in thee,|Trust it not, it will|ru- in|thee!|
w: fool- ing thee,|Trust it not, it will|ru- in|thee!|
V:2
!p! F2 | F2 F- F!<(! F2 (F F)!<)! | !>!G3 F G2 z2 | A4 G2 z2 | E4 F2 z F | F2 F2!<(! F2 (F F)!<)! | %6
w: 1.I|know the _ wine- cup's _|fair to see,|Take care!|Take care! It|can both false and _|
w: 2.It|glit- ters _ like a _|gold- en crown,|Take care!|Take care! To|dark- ness it will _|
w: 3.There's|pain and _ woe in the|wine- cup's hue,|Take care!|Take care! And|it will prove no _|
w: 4.It|shines like a jew- el _|bright and fair,|Take care!|Take care! It|is a fool's cap for|
 !>!G3 E E2 z F | F4 F2 z E | (E4 E2) z2 |!p! D2 D2 D2 G F | E2 (FG) F4 |"^cresc." B2 G2 F2 E E | %12
w: frien- ly be, Be-|ware! _ Be-|ware! _|Trust it not, it will|ru- in _ thee,|Trust it not, it will|
w: drag thee down, Be-|ware! _ Be-|ware! _|Trust it not, it will|ru- in _ thee,|Trust it not, it will|
w: friend to thee, Be-|ware! _ Be-|ware! _|Trust it not, it will|ru- in _ thee,|Trust it not, it will|
w: thee to wear, Be-|ware! _ Be-|ware! _|Trust it not, it is|fool- ing _ thee,|Trust it not, it will|
!>(! E6 E2!>)! | D6 |] %14
w: ru- in|thee!|
w: ru- in|thee!|
w: ru- in|thee!|
w: ru- in|thee!|
V:3
!p! A2 | A2 A- A!<(! A2 (A A)!<)! | !>!A3 A A2 z2 | d4 d2 z2 | c4 d2 z A | %5
w: 1.I|know the _ wine- cup's _|fair to see,|Take care!|Take care! It|
w: 2.It|glit- ters _ like a _|gold- en crown,|Take care!|Take care! To|
w: 3.There's|pain and _ woe in the|wine- cup's hue,|Take care!|Take care! And|
w: 4.It|shines like a jew- el _|bright and fair,|Take care!|Take care! It|
 A2 A2!<(! A2 ((A A))!<)! | !>!G3 G G2 z e | e4 d2 z d | (d4 c2) z2 |!p! d2 =c2 B2 e d | c2 e2 d4 | %11
w: can both false and _|frien- ly be, Be-|ware! _ Be-|ware! _|Trust it not, it will|ru- in thee,|
w: dark- ness it will _|drag thee down, Be-|ware! _ Be-|ware! _|Trust it not, it will|ru- in thee,|
w: it will prove no _|friend to thee, Be-|ware! _ Be-|ware! _|Trust it not, it will|ru- in thee,|
w: is a fool's cap for|thee to wear, Be-|ware! _ Be-|ware! _|Trust it not, it is|fool- ing thee,|
"^cresc." d2 d2 d2 d d |!>(! (d4 c2) c2!>)! | d6 |] %14
w: Trust it not, it will|ru- * in|thee!|
w: Trust it not, it will|ru- * in|thee!|
w: Trust it not, it will|ru- * in|thee!|
w: Trust it not, it will|ru- * in|thee!|
V:4
!p! A,,2 | D,2 A,,- A,,!<(! D,2 (A,, A,,)!<)! | !>!C,3 D, E,2 z2 | F,4 G,2 z2 | A,4 D,2 z D, | %5
w: 1.I|know the _ wine- cup's _|fair to see,|Take care!|Take care! It|
w: 2.It|glit- ters _ like a _|gold- en crown,|Take care!|Take care! To|
w: 3.There's|pain and _ woe in the|wine- cup's hue,|Take care!|Take care! And|
w: 4.It|shines like a jew- el _|bright and fair,|Take care!|Take care! It|
 D,2 A,,2!<(! D,2 ((A,, A,,))!<)! | !>!E,3 D, C,2 z F, | F,4 B,2 z E, | (E,4 A,2) z2 | %9
w: can both false and _|frien- ly be, Be-|ware! _ Be-|ware! _|
w: dark- ness it will _|drag thee down, Be-|ware! _ Be-|ware! _|
w: it will prove no _|friend to thee, Be-|ware! _ Be-|ware! _|
w: is a fool's cap for|thee to wear, Be-|ware! _ Be-|ware! _|
!p! F,2 F,2 G,2 G, G, | A,2 A,2 B,4 |"^cresc." G,2 G,2 A,2 B, B, |!>(! A,4 A,,4!>)! | D,6 |] %14
w: Trust it not, it will|ru- in thee,|Trust it not, it will|ru- in|thee!|
w: Trust it not, it will|ru- in thee,|Trust it not, it will|ru- in|thee!|
w: Trust it not, it will|ru- in thee,|Trust it not, it will|ru- in|thee!|
w: Trust it not, it is|fool- ing thee,|Trust it not, it will|ru- in|thee!|

